!!!OTL: Indian Song
!!!ONM: 121b.
**kern
*clefG2
*k[f#]
*G:
*M3/4
*MM100
{4d
=1
2b
8b
8b
=2
4b
4a
4g
=3
4e
4.g
8e
=4
2d}
{4g
=5
4b
4a
8b
8b
=6
2dd
4dd
=7
4ee
4.dd
8b
=8
4a
4r}
{4d
=9
4b
4.b
8b
=10
4b
4.a
8g
=11
4e
4.g
8e
=12
4d
4r}
{4b
=13
2dd
8b
8dd
=14
4ee
4.dd
8g
=15
4a
4.g
8f#
=16
2g}
==
*-
!!!CNT: Folksongs of Maritime Canada
!!!MRD: 1928///-1932///
!!!OCL: Helen Creighton
!!!YOR: Songs and Ballads from Nova Scotia
!!!PPR: J.M. Dent & Sons, Limited
!!!PPP: Toronto, Canada
!!!PDT: 1932///
!!!reprint: Dover Publications, 1992: ISBN 0-486-21703-5
!!!ENC1: Craig Stuart Sapp (music and bibliographic data)                       
!!!ENC2: Marcus Pearce (phrase markings and key designations)                   
!!!ENC3: Darrell Conklin (phrase markings and key designations)   
!!!END: 2002/04/10/
!!!EEV: 2004/06/05
!!!MPN: Mr. Ben Henneberry
!!!PPG: 263
!!!EFL: 123/152
!!!ARE: Canada; Nova Scotia
!!!verses: 10
!!!VTS: 3012620671
